!!!OTL: HANS NABER ICH HEBB
!!!ARE: Europa, Mitteleuropa, Deutschland, Insel Ruegen, Insel Hiddensee
!!!SCT: E1503
!!!YEM: Copyright 1995, estate of Helmut Schaffrath.
**kern
*ICvox
*Ivox
*M3/8
*k[]
*a:
{8e
=1
8.a
16gn
8a
=2
8.a
16b
8ccn
=3
4b
8g#
=4
4e}
{8e
=5
8.b
16a
8b
=6
8.b
16ccn
8dd
=7
4dd
8b
=8
4a}
{8ee
=9
8ffn
8ee
8dd#
=10
8ee
8r
8ee
=11
8ffn
8ee
8dd#
=12
8ee
8r}
{8ee
=13
8.ccn
16b
8a
=14
8.ffn
16ee
8dd
=15
8.b
16a
8g#
=16
4a}
==
!!!AGN: Staende -, Seemanns - Lied; Trink - Lied
!!!ONB: ESAC (Essen Associative Code) Database: ERK3
!!!AMT: simple triple
!!!AIN: vox
!!!EED: Helmut Schaffrath
!!!EEV: 1.0
*-
